!!!COM: Scriabin, Alexander
!!!OTL: Prelude
!!!OPR: 5 Preludes
!!!OPS: 15
!!!ONM: 5
!!!ODT: 1895
!!!AGN: Prelude
**kern	**kern	**dynam
*staff2	*staff1	*staff1/2
*Ipiano	*Ipiano	*
*clefF4	*clefG2	*
*k[f#c#g#d#]	*k[f#c#g#d#]	*
*c#:	*c#:	*
*M6/8	*M6/8	*
=1	=1	=1
*^	*^	*
*	*^	*	*	*
[4.f##X	2.c#	4.A#X\	2.ryy	8r	.
.	.	.	.	8dd#L	.
.	.	.	.	8cc##XJ	.
8.f##L]	.	4.An\	.	8eeL	.
.	.	.	.	8dd#	.
8.d#J	.	.	.	.	.
.	.	.	.	8f##XJ	.
=2	=2	=2	=2	=2	=2
4.e	2.c#	4.G#\	2.ryy	8g#L	.
.	.	.	.	8f##X	.
.	.	.	.	8bJ	.
4.c#	.	4.E\	.	8aL	.
.	.	.	.	8g#	.
.	.	.	.	[8c#J	.
*v	*v	*v	*	*	*
=3	=3	=3	=3
*	*	*^	*
8r	4.f#	4.c#]	2.c#\	.
8D#L	.	.	.	.
8EJ	.	.	.	.
8DnL	4f##X	8.c#L	.	.
8D#X	.	.	.	.
.	.	8.f##J	.	.
8AJ	8dd#	.	.	.
=4	=4	=4	=4	=4
8G#L	4.cc#	[4.f#X	4.d#\	.
8A	.	.	.	.
8F##XJ	.	.	.	.
8G#L	4.b#X	4.f#]	4.r	.
8e	.	.	.	.
8d#J	.	.	.	.
*	*v	*v	*v	*
*clefG2	*	*
=5	=5	=5
*^	*^	*
*	*^	*	*	*
[4.b#X	2.f#	4.d#\	2.ryy	8r	.
.	.	.	.	8gg#L	.
.	.	.	.	8ff##XJ	.
8.b#L]	.	4.dn\	.	8aaL	.
.	.	.	.	8gg#	.
8.g#J	.	.	.	.	.
.	.	.	.	8b#XJ	.
=6	=6	=6	=6	=6	=6
4.a	2.f#	4.c#\	2.ryy	8cc#L	.
.	.	.	.	8b#X	.
.	.	.	.	8eeJ	.
4.f#	.	4.A\	.	8ddnL	.
.	.	.	.	8cc#	.
.	.	.	.	[8f#J	.
*v	*v	*v	*	*	*
=7	=7	=7	=7
*	*	*^	*
8r	4.b	4.f#]	2.f#\	.
8G#L	.	.	.	.
8AJ	.	.	.	.
8GnL	4b#X	8.f#L	.	.
8G#X	.	.	.	.
.	.	8.b#J	.	.
8dnJ	8gg#	.	.	.
=8	=8	=8	=8	=8
*^	*	*	*	*
*	*^	*	*	*	*
4.raa	4.rc	8c#/L	4.ff#	4.bn	4.g#\	.
.	.	8dn/	.	.	.	.
.	.	8B#X/J	.	.	.	.
[4.bn	8g#L	4.c#/	8ee#XL	4.rc	4.r	.
.	8f#	.	8ddn	.	.	.
.	8e#XJ	.	8cc#J	.	.	.
*	*	*	*v	*v	*v	*
=9	=9	=9	=9	=9
8bL]	[2.en	4.c#\	[4.een	.
8a	.	.	.	.
8g#J	.	.	.	.
4.gn	.	4.B\	8eeL]	.
.	.	.	8dd#X	.
.	.	.	8eeJ	.
=10	=10	=10	=10	=10
8.gnL	4.e]	2.A#X\	8ccnL	.
.	.	.	8cc#X	.
8.cc#J	.	.	.	.
.	.	.	8ggnJ	.
4.cc#	8.f#L	.	8ff#L	.
.	.	.	8ee#X	.
.	[8.gJ	.	.	.
.	.	.	8eenJ	.
=11	=11	=11	=11	=11
4.b	4.g]	8B\L	[4.ddn	.
.	.	8gn\	.	.
.	.	8f#\J	.	.
8.bL	4.fn	4.A\	8ddL]	.
.	.	.	8cc#	.
8.fJ	.	.	.	.
.	.	.	8ddJ	.
=12	=12	=12	=12	=12
8.fnL	4.dn	2.G#\	8a#XL	.
.	.	.	8b	.
8.bJ	.	.	.	.
.	.	.	8ffnJ	.
4.b	8.eL	.	8eeL	.
.	.	.	8dd#	.
.	8.fJ	.	.	.
.	.	.	8ddnJ	.
=13	=13	=13	=13	=13
4.cc#	4.e	2.A\	8cc#L	.
.	.	.	8ee	.
.	.	.	8dd#XJ	.
4.cc#	8.eL	.	8eeL	.
.	.	.	8ff#	.
.	8.d#J	.	.	.
.	.	.	8ff##XJ	.
=14	=14	=14	=14	=14
2.cc#	2.e	2.G#\	8gg#L	.
.	.	.	8ccc#	.
.	.	.	8bb#XJ	.
.	.	.	8bbnL	.
.	.	.	8aa	.
.	.	.	8gg#J	.
=15	=15	=15	=15	=15
2.b#X	[4.f#	2.G#\	8aaL	.
.	.	.	8gg#	.
.	.	.	8ff##XJ	.
.	8.f#L]	.	8gg#L	.
.	.	.	8cc##X	.
.	8.aJ	.	.	.
.	.	.	8dd#J	.
=16	=16	=16	=16	=16
4.cc#	2.g#	[2.c#\	8ff#L	.
.	.	.	8ee	.
.	.	.	8dd#J	.
4.g#	.	.	8eeL	.
.	.	.	8dd#	.
.	.	.	8cc#J	.
=17	=17	=17	=17	=17
8bL	[2.e	4.c#\]	[4.ee	.
8a	.	.	.	.
8g#J	.	.	.	.
4.gn	.	4.B\	8eeL]	.
.	.	.	8dd#X	.
.	.	.	8eeJ	.
=18	=18	=18	=18	=18
8.gnL	4.e]	2.A#X\	8ccnL	.
.	.	.	8cc#X	.
8.cc#J	.	.	.	.
.	.	.	8ggnJ	.
4.cc#	8.f#L	.	8ff#L	.
.	.	.	8ee#X	.
.	[8.gJ	.	.	.
.	.	.	8eenJ	.
=19	=19	=19	=19	=19
4.b	8gL]	4.B\	[4.ddn	.
.	8gn	.	.	.
.	8f#J	.	.	.
8.bL	4.fn	4.A\	8ddL]	.
.	.	.	8cc#	.
8.fJ	.	.	.	.
.	.	.	8ddJ	.
=20	=20	=20	=20	=20
8.fnL	4.dn	2.G#\	8a#XL	.
.	.	.	8b	.
8.bJ	.	.	.	.
.	.	.	8ffnJ	.
4.b	8.eL	.	8eeL	.
.	.	.	8dd#X	.
.	8.fJ	.	.	.
.	.	.	8ddnJ	.
=21	=21	=21	=21	=21
4.cc#	4.e	2.A\	8cc#L	.
.	.	.	8ee	.
.	.	.	8dd#XJ	.
4.cc#	8.eL	.	8eeL	.
.	.	.	8ff#	.
.	8.d#J	.	.	.
.	.	.	8ff##XJ	.
=22	=22	=22	=22	=22
2.cc#	2.e	2.G#\	8gg#L	.
.	.	.	8ccc#	.
.	.	.	8bb#XJ	.
.	.	.	8bbnL	.
.	.	.	8aa	.
.	.	.	8gg#J	.
=23	=23	=23	=23	=23
2.b#X	2.f#	2.G#\	8aaL	.
.	.	.	8gg#	.
.	.	.	8ff##XJ	.
.	.	.	8gg#L	.
.	.	.	8cc##X	.
.	.	.	8dd#J	.
=24	=24	=24	=24	=24
2.cc#	4.f#	2.A\	8ff#L	.
.	.	.	8ee	.
.	.	.	8dd#J	.
.	4.f##X	.	8eeL	.
.	.	.	8dd#	.
.	.	.	8cc#J	.
=25	=25	=25	=25	=25
*	*	*	*^	*
[4.f##X	2.c#	4.A#X\	2.ryy	8r	.
.	.	.	.	8dd#L	.
.	.	.	.	8cc##XJ	.
8.f##L]	.	4.An\	.	8eeL	.
.	.	.	.	8dd#	.
8.d#J	.	.	.	.	.
.	.	.	.	8f##XJ	.
=26	=26	=26	=26	=26	=26
4.e	4.c#	4.G#\	2.ryy	8g#L	.
.	.	.	.	8f##X	.
.	.	.	.	8bJ	.
4raa	4rc	4r	.	8aL	.
.	.	.	.	8g#	.
8raa	8rc	8r	.	[8c#J	.
*v	*v	*v	*	*	*
*clefF4	*	*	*
=27	=27	=27	=27
*^	*	*	*
4.rc	8rEE	4.e	4.c#]	.
.	8G#L	.	.	.
.	8F##XJ	.	.	.
8rc	8AL	4.d#	8.c#L	.
[4G#	8G#	.	.	.
.	.	.	8.B#XJ	.
.	8GG#J	.	.	.
*	*	*v	*v	*
=28	=28	=28	=28
4.G#]	8C#L	4.c# 4.e	.
.	8GG#	.	.
.	8CC#J	.	.
4.C# 4.G# 4.g#	4.rEE	4.e 4.cc#	.
*v	*v	*	*
==	==	==
*-	*-	*-
!!!system-decoration: {(*)}
!!!ENC: Bryan Jacob Bell
!!!END: November 2021 to April 2022
!!!PED: Konstantin Igumnov and Yakov Milstein
!!!PTL: A.N. Skryabin: Polnoe sobranie sochinenii dlia fortepiano (Muzgiz)
